X:8
T:Boys of Malin, The
S:Ciaran Tourish \& Dermot McLaughlin on {\it Fiddlesticks}, Nimbus 5320
N:transcribed by Alan Ng
Z: id:ng-reels-8 transcribed by Alan Ng alan@alan-ng.nospam (net) April 15, 1996
E:10
M:C|
K:A
cB|:ABcd eAce|fedf edcB|ABcd eAce|1fdBc dBGB:|2fdBc defg|*
E:12
|:aA ~A2 eAce|a2 ag ~f3 g|1aA ~A2 eAce|fdBc defg:|2afge fdec|\
dcBc d2 cB|:Aece Aece|Aece dBcB|~Aece Aece|fdBc d2 cB:|**
\bigskip
